public/img/assets/icons/weather-conditions/small/sleet-night.svg

<svg width="24" height="24" viewBox="0 0 24 24" fill="none" xmlns="http://www.w3.org/2000/svg">
<path d="M11.75 2C11.9314 2.00004 12.1066 2.06582 12.2432 2.18514C12.3798 2.30447 12.4686 2.46926 12.493 2.649L12.5 2.751L12.499 6.096L14.671 4.189C14.745 4.124 14.8311 4.0742 14.9243 4.04247C15.0176 4.01073 15.1161 3.99767 15.2144 4.00403C15.3127 4.01039 15.4088 4.03605 15.4972 4.07954C15.5856 4.12303 15.6645 4.1835 15.7295 4.2575C15.7945 4.3315 15.8443 4.41758 15.876 4.51082C15.9078 4.60406 15.9208 4.70265 15.9145 4.80094C15.9081 4.89923 15.8825 4.9953 15.839 5.08368C15.7955 5.17205 15.735 5.251 15.661 5.316L12.5 8.093L12.498 11H15.407L18.187 7.84C18.3057 7.70499 18.4689 7.6171 18.6469 7.59232C18.825 7.56754 19.006 7.60753 19.157 7.705L19.245 7.772C19.38 7.89067 19.4679 8.05389 19.4927 8.23192C19.5175 8.40996 19.4775 8.59097 19.38 8.742L19.313 8.83L17.405 11H20.75C20.9314 11 21.1066 11.0658 21.2432 11.1851C21.3798 11.3045 21.4686 11.4693 21.493 11.649L21.5 11.75C21.5 11.9312 21.4344 12.1063 21.3152 12.2429C21.1961 12.3795 21.0316 12.4684 20.852 12.493L20.75 12.5H17.402L19.311 14.673C19.4299 14.808 19.4964 14.9812 19.4982 15.1611C19.5 15.341 19.4371 15.5156 19.321 15.653L19.243 15.731C19.108 15.8499 18.9348 15.9164 18.7549 15.9182C18.575 15.92 18.4004 15.8572 18.263 15.741L18.184 15.663L15.405 12.5H12.497L12.498 15.407L15.662 18.187C15.797 18.3057 15.8849 18.4689 15.9097 18.6469C15.9345 18.825 15.8945 19.006 15.797 19.157L15.73 19.246C15.6113 19.381 15.4481 19.4689 15.2701 19.4937C15.092 19.5185 14.911 19.4785 14.76 19.381L14.672 19.314L12.498 17.404L12.497 20.752C12.497 20.9334 12.4312 21.1086 12.3119 21.2452C12.1925 21.3818 12.0277 21.4706 11.848 21.495L11.747 21.501C11.5658 21.501 11.3907 21.4354 11.2541 21.3162C11.1175 21.1971 11.0286 21.0326 11.004 20.853L10.997 20.751L10.996 17.408L8.829 19.314C8.67955 19.4453 8.48407 19.5118 8.28556 19.499C8.08706 19.4861 7.90178 19.395 7.7705 19.2455C7.63922 19.0961 7.57268 18.9006 7.58553 18.7021C7.59837 18.5036 7.68955 18.3183 7.839 18.187L10.997 15.41V12.5H8.312L5.315 15.913C5.18372 16.0624 4.99844 16.1536 4.79994 16.1665C4.60143 16.1793 4.40595 16.1128 4.2565 15.9815C4.10705 15.8502 4.01587 15.6649 4.00303 15.4664C3.99018 15.2679 4.05672 15.0724 4.188 14.923L6.316 12.5L2.75 12.502C2.56861 12.502 2.39339 12.4362 2.25678 12.3169C2.12016 12.1975 2.03143 12.0327 2.007 11.853L2 11.751C1.99977 11.5696 2.06529 11.3942 2.18444 11.2574C2.30359 11.1206 2.46828 11.0317 2.648 11.007L2.75 11.001H5.874L4.188 9.078C4.05672 8.92855 3.99018 8.73307 4.00303 8.53456C4.01587 8.33606 4.10705 8.15078 4.2565 8.0195C4.40595 7.88822 4.60143 7.82168 4.79994 7.83453C4.99844 7.84737 5.18372 7.93855 5.315 8.088L7.87 11H10.998V8.09L7.838 5.312C7.70299 5.19333 7.6151 5.03011 7.59032 4.85208C7.56554 4.67404 7.60553 4.49303 7.703 4.342L7.77 4.254C7.88867 4.11899 8.05189 4.0311 8.22992 4.00632C8.40796 3.98154 8.58897 4.02153 8.74 4.119L8.829 4.186L10.999 6.093L11 2.75C11 2.58592 11.0537 2.42635 11.1531 2.29576C11.2524 2.16517 11.3919 2.07076 11.55 2.027L11.648 2.007L11.75 2Z" fill="#D580FF"/>
</svg>

<svg width="24" height="24" fill="none" xmlns="http://www.w3.org/2000/svg"><path d="M11.75 2a.75.75 0 0 1 .743.649l.007.102-.001 3.345 2.172-1.907a.75.75 0 0 1 .99 1.127L12.5 8.093 12.498 11h2.909l2.78-3.16a.75.75 0 0 1 .97-.135l.088.067a.75.75 0 0 1 .135.97l-.067.088L17.405 11h3.345a.75.75 0 0 1 .743.649l.007.101a.75.75 0 0 1-.648.743l-.102.007h-3.348l1.909 2.173a.75.75 0 0 1 .01.98l-.078.078a.75.75 0 0 1-.98.01l-.079-.078-2.779-3.163h-2.908l.001 2.907 3.164 2.78a.75.75 0 0 1 .135.97l-.067.089a.75.75 0 0 1-.97.135l-.088-.067-2.174-1.91-.001 3.348a.75.75 0 0 1-.649.743l-.101.006a.75.75 0 0 1-.743-.648l-.007-.102-.001-3.343-2.167 1.906a.75.75 0 0 1-.99-1.127l3.158-2.777V12.5H8.312l-2.997 3.413a.75.75 0 0 1-1.127-.99L6.316 12.5l-3.566.002a.75.75 0 0 1-.743-.649L2 11.751a.75.75 0 0 1 .648-.744l.102-.006h3.124L4.188 9.078a.75.75 0 0 1 1.127-.99L7.87 11h3.128V8.09l-3.16-2.778a.75.75 0 0 1-.135-.97l.067-.088a.75.75 0 0 1 .97-.135l.089.067 2.17 1.907L11 2.75a.75.75 0 0 1 .55-.723l.098-.02L11.75 2Z" fill="#D580FF"/></svg>
